assets/aspect-ratio.svg

<svg xmlns="http://www.w3.org/2000/svg" fill="none" viewBox="0 0 28 21">
  <path fill="#2A2238" d="M0 2.625C0 1.92881.276562 1.26113.768845.768845 1.26113.276562 1.92881 0 2.625 0h22.75c.6962 0 1.3639.276562 1.8562.768845C27.7234 1.26113 28 1.92881 28 2.625v15.75c0 .6962-.2766 1.3639-.7688 1.8562-.4923.4922-1.16.7688-1.8562.7688H2.625c-.69619 0-1.36387-.2766-1.856155-.7688C.276562 19.7389 0 19.0712 0 18.375V2.625Zm2.625-.875c-.23206 0-.45462.09219-.61872.25628-.16409.1641-.25628.38666-.25628.61872v15.75c0 .2321.09219.4546.25628.6187.1641.1641.38666.2563.61872.2563h22.75c.2321 0 .4546-.0922.6187-.2563.1641-.1641.2563-.3866.2563-.6187V2.625c0-.23206-.0922-.45462-.2563-.61872-.1641-.16409-.3866-.25628-.6187-.25628H2.625Z"/>
  <path fill="#2A2238" d="M3.5 4.375c0-.23206.09219-.45462.25628-.61872.1641-.16409.38666-.25628.61872-.25628h5.25c.23206 0 .4546.09219.6187.25628.1641.1641.2563.38666.2563.61872 0 .23206-.0922.45462-.2563.61872-.1641.16409-.38664.25628-.6187.25628H5.25v4.375c0 .23206-.09219.4546-.25628.6187-.1641.1641-.38666.2563-.61872.2563-.23206 0-.45462-.0922-.61872-.2563C3.59219 10.0796 3.5 9.85706 3.5 9.625v-5.25Zm21 12.25c0 .2321-.0922.4546-.2563.6187-.1641.1641-.3866.2563-.6187.2563h-5.25c-.2321 0-.4546-.0922-.6187-.2563-.1641-.1641-.2563-.3866-.2563-.6187 0-.2321.0922-.4546.2563-.6187.1641-.1641.3866-.2563.6187-.2563h4.375v-4.375c0-.2321.0922-.4546.2563-.6187.1641-.1641.3866-.2563.6187-.2563.2321 0 .4546.0922.6187.2563.1641.1641.2563.3866.2563.6187v5.25Z"/>
</svg>

<svg width="28" height="21" viewBox="0 0 28 21" fill="none" xmlns="http://www.w3.org/2000/svg">
<path d="M0 2.625C0 1.92881 0.276562 1.26113 0.768845 0.768845C1.26113 0.276562 1.92881 0 2.625 0H25.375C26.0712 0 26.7389 0.276562 27.2312 0.768845C27.7234 1.26113 28 1.92881 28 2.625V18.375C28 19.0712 27.7234 19.7389 27.2312 20.2312C26.7389 20.7234 26.0712 21 25.375 21H2.625C1.92881 21 1.26113 20.7234 0.768845 20.2312C0.276562 19.7389 0 19.0712 0 18.375L0 2.625ZM2.625 1.75C2.39294 1.75 2.17038 1.84219 2.00628 2.00628C1.84219 2.17038 1.75 2.39294 1.75 2.625V18.375C1.75 18.6071 1.84219 18.8296 2.00628 18.9937C2.17038 19.1578 2.39294 19.25 2.625 19.25H25.375C25.6071 19.25 25.8296 19.1578 25.9937 18.9937C26.1578 18.8296 26.25 18.6071 26.25 18.375V2.625C26.25 2.39294 26.1578 2.17038 25.9937 2.00628C25.8296 1.84219 25.6071 1.75 25.375 1.75H2.625Z" fill="#2A2238"/>
<path d="M3.5 4.375C3.5 4.14294 3.59219 3.92038 3.75628 3.75628C3.92038 3.59219 4.14294 3.5 4.375 3.5H9.625C9.85706 3.5 10.0796 3.59219 10.2437 3.75628C10.4078 3.92038 10.5 4.14294 10.5 4.375C10.5 4.60706 10.4078 4.82962 10.2437 4.99372C10.0796 5.15781 9.85706 5.25 9.625 5.25H5.25V9.625C5.25 9.85706 5.15781 10.0796 4.99372 10.2437C4.82962 10.4078 4.60706 10.5 4.375 10.5C4.14294 10.5 3.92038 10.4078 3.75628 10.2437C3.59219 10.0796 3.5 9.85706 3.5 9.625V4.375ZM24.5 16.625C24.5 16.8571 24.4078 17.0796 24.2437 17.2437C24.0796 17.4078 23.8571 17.5 23.625 17.5H18.375C18.1429 17.5 17.9204 17.4078 17.7563 17.2437C17.5922 17.0796 17.5 16.8571 17.5 16.625C17.5 16.3929 17.5922 16.1704 17.7563 16.0063C17.9204 15.8422 18.1429 15.75 18.375 15.75H22.75V11.375C22.75 11.1429 22.8422 10.9204 23.0063 10.7563C23.1704 10.5922 23.3929 10.5 23.625 10.5C23.8571 10.5 24.0796 10.5922 24.2437 10.7563C24.4078 10.9204 24.5 11.1429 24.5 11.375V16.625Z" fill="#2A2238"/>
</svg>
